!!!COM:	Du Fay, Guillaume
!!!CDT:	~1397/08/05/-1474/11/27
!!!OPR:	Missa L'homme arm&eacute;
!!!ONM:	5
!!!OTL:	Agnus Dei
!!!AGN:	Mass; Agnus Dei
!!!SCT:	Duf1004e
!!!SCA:	Duf1004e
!!!voices:	4
!!!voices-OPR:	4
!!midi-transpose: -2
**kern	**text	**kern	**text	**kern	**text	**kern	**text
*staff4	*staff4	*staff3	*staff3	*staff2	*staff2	*staff1	*staff1
*Ivox	*	*Ivox	*	*Ivox	*	*Ivox	*
*I"Bassus	*	*I"Tenor	*	*I"Contra	*	*I"Cantus	*
*I'B	*	*I'T	*	*I'C	*	*I'Cn	*
*>[A,B,C]	*>[A,B,C]	*>[A,B,C]	*>[A,B,C]	*>[A,B,C]	*>[A,B,C]	*>[A,B,C]	*>[A,B,C]
*>A	*>A	*>A	*>A	*>A	*>A	*>A	*>A
*clefF4	*	*clefGv2	*	*clefGv2	*	*clefG2	*
*k[b-]	*	*k[b-]	*	*k[b-]	*	*k[]	*
*M3/1	*	*M3/1	*	*M3/1	*	*M3/1	*
*met(O)	*	*met(O)	*	*met(O)	*	*met(O)	*
*MM320	*MM320	*MM320	*MM320	*MM320	*MM320	*MM320	*MM320
!!section: Agnus Dei I
!!!OMD: Agnus Dei I
=1-	=1-	=1-	=1-	=1-	=1-	=1-	=1-
0.r	.	0.r	.	0G	A-	1.g	A-
.	.	.	.	.	.	2a/	.
.	.	.	.	1G	-gnus	1b	-gnus
=2	=2	=2	=2	=2	=2	=2	=2
0.r	.	0.r	.	1A	de-	1cc	.
.	.	.	.	0G	.	2b\	de-
.	.	.	.	.	.	1dd	.
.	.	.	.	.	.	2cc\	.
=3	=3	=3	=3	=3	=3	=3	=3
0.r	.	0.r	.	1G	.	2b\	.
.	.	.	.	.	.	2g/	.
.	.	.	.	1F	.	1a	.
.	.	.	.	1G	.	2.b\	.
.	.	.	.	.	.	4g/	.
=4	=4	=4	=4	=4	=4	=4	=4
0.r	.	0.r	.	1B-	.	1.g	.
.	.	.	.	0A	.	.	.
.	.	.	.	.	.	2f#i/	.
.	.	.	.	.	.	2f#i/	.
.	.	.	.	.	.	2e/	.
=5	=5	=5	=5	=5	=5	=5	=5
1r	.	0G	A-	1G	-i,	0.g	-i,
0d	Qui	.	.	1r	.	.	.
.	.	1G	-gnus	1r	.	.	.
=6	=6	=6	=6	=6	=6	=6	=6
0e	tol-	0c	de-	0.g	qui	1r	.
.	.	.	.	.	.	1r	.
1e	-lis,	1c	-i,	.	.	1cc	qui
=7	=7	=7	=7	=7	=7	=7	=7
1d	qui	1B-	qui	1g	tol-	1dd	.
0c	tol-	0A	tol-	2.a\	.	2ee\	.
.	.	.	.	.	.	2.ee\	tol-
.	.	.	.	4g\	.	.	.
.	.	.	.	2e\	.	.	.
.	.	.	.	.	.	4dd\	.
.	.	.	.	2f\	.	2cc\	.
=8	=8	=8	=8	=8	=8	=8	=8
0d	-lis	1G	-lis	1g	-lis	1b	-lis
.	.	1r	.	1f	.	1a	pec-
1d	pec-	1r	.	1a	pec-	[1dd	-ca-
=9	=9	=9	=9	=9	=9	=9	=9
1.G	-ca-	1d	pec-	0g	-ca-	2dd\]	.
.	.	.	.	.	.	1b	.
.	.	1d	-ca-	.	.	.	.
2F\	.	.	.	.	.	2a/	.
1E	-ta	1G	-ta,	1g	-ta	2b\	.
.	.	.	.	.	.	2cc\	.
=10	=10	=10	=10	=10	=10	=10	=10
[0.D	mun-	1r	.	0.a	mun-	0dd	-ta
.	.	1d	pec-	.	.	.	.
.	.	1d	-ca-	.	.	2dd\	mun-
.	.	.	.	.	.	2cc\	.
=11	=11	=11	=11	=11	=11	=11	=11
1D]	.	1d	-ta	0.f	.	1.a	.
0F	.	0c	mun-	.	.	.	.
.	.	.	.	.	.	2g/	.
.	.	.	.	.	.	1a	.
=12	=12	=12	=12	=12	=12	=12	=12
1G	-di,	1B-	.	0.d	-di,	2b-\	.
.	.	.	.	.	.	1g	.
0D	.	0A	.	.	.	.	.
.	.	.	.	.	.	2f#i/	.
.	.	.	.	.	.	2f#i/	.
.	.	.	.	.	.	2e/	.
=13	=13	=13	=13	=13	=13	=13	=13
1d	pec-	0.G	-di,	0.r	.	0.g	-di,
1d	-ca-	.	.	.	.	.	.
1d	-ta	.	.	.	.	.	.
=14	=14	=14	=14	=14	=14	=14	=14
0.G	mun-	1d	pec-	0g	qui	0.r	.
.	.	1d	-ca-	.	.	.	.
.	.	1d	-ta	2g\	tol-	.	.
.	.	.	.	2f\	.	.	.
=15	=15	=15	=15	=15	=15	=15	=15
1G	-di,	1B-	mun-	0d	.	1.g	qui
1r	.	0G	-di	.	.	.	.
.	.	.	.	.	.	2f/	.
1r	.	.	.	[1B-	.	1d	.
=16	=16	=16	=16	=16	=16	=16	=16
1G	tol-	0.r	.	1B-]	.	1e-	tol-
0D	-lis	.	.	0A	-lis	0d	-lis
=17	=17	=17	=17	=17	=17	=17	=17
0.E-	pec-	0g	tol-	0G	pec-	0.c	pec-
.	.	1g	-lis	1G	-ca-	.	.
=18	=18	=18	=18	=18	=18	=18	=18
0.D	-ca-	0f	pec-	1A	.	0d	-ca-
.	.	.	.	1.B-	.	.	.
.	.	1f	-ca-	.	.	1d	-ta
.	.	.	.	2A/	.	.	.
=19	=19	=19	=19	=19	=19	=19	=19
0C	-ta,	0g	-ta	1.c	-ta	1.e	mun-
.	.	.	.	1G	mun-	2c/	.
2E\	pec-	1g	mun-	.	.	1c	-di,
2F\	.	.	.	2A/	.	.	.
=20	=20	=20	=20	=20	=20	=20	=20
1G	-ca-	0.d	-di,	1B-	-di,	1g	pec-
0D	-ta	.	.	1A	.	1f	-ca-
.	.	.	.	2r	.	1a	-ta
.	.	.	.	[2d\	mun-	.	.
=21	=21	=21	=21	=21	=21	=21	=21
0G	mun-	0.r	.	2d\]	.	2g/	mun-
.	.	.	.	2e\	.	1b-i	.
.	.	.	.	2d\	.	.	.
.	.	.	.	2e\	.	2cc\	.
1F	.	.	.	1f	.	1a	.
=22	=22	=22	=22	=22	=22	=22	=22
3%2GV	.	0g	tol-	3%2dV	.	1g	-di,
3%2c	.	.	.	3%2e-	.	.	.
.	.	.	.	.	.	1r	.
3%2B-Z	.	.	.	[3%2dZ	.	.	.
3%2GV	.	1g	-lis	3d\]V	.	1r	.
.	.	.	.	3e-i\	.	.	.
[3B-\Z	.	.	.	[3d\Z	.	.	.
=23	=23	=23	=23	=23	=23	=23	=23
3B-\]V	.	0f	pec-	6d\]V	.	0.r	.
.	.	.	.	6B-\	.	.	.
3%2AZ	.	.	.	3c\	.	.	.
.	.	.	.	3d\Z	.	.	.
3%2dV	.	.	.	3%2B-V	.	.	.
3c\Z	.	.	.	3A/Z	.	.	.
3B-\V	.	1f	-ca-	3%2dV	.	.	.
3%2AZ	.	.	.	.	.	.	.
.	.	.	.	3c\Z	.	.	.
=24	=24	=24	=24	=24	=24	=24	=24
0G	-di,	0g	-ta	1d	-di,	2.b\	mun-
.	.	.	.	.	.	4cc\	.
.	.	.	.	1B-	mun-	2dd\	.
.	.	.	.	.	.	2ee\	.
1A	mun-	1e	mun-	1c	.	2.cc\	.
.	.	.	.	.	.	4b\	.
=25	=25	=25	=25	=25	=25	=25	=25
0.D	-di,	0.d	-di	2A/	-di,	1dd	-di,
.	.	.	.	2r	.	.	.
.	.	.	.	2.f\	mi-	1a	.
.	.	.	.	4g\	.	.	.
.	.	.	.	1a	-se-	[1dd	mi-
=26	=26	=26	=26	=26	=26	=26	=26
0.G	mi-	1r	.	2d\	-re-	2dd\]	.
.	.	.	.	1g	.	2cc\	-se-
.	.	1r	.	.	.	2b\	-re-
.	.	.	.	2f\	.	2a/	.
.	.	1g	rni-	2.e\	.	1b	-re
.	.	.	.	4d\	.	.	.
=27	=27	=27	=27	=27	=27	=27	=27
0F	-se-	0a	-se-	0f	-re	0cc	no-
1G	-re-	1g	-re-	[1d	no-	1b	.
=28	=28	=28	=28	=28	=28	=28	=28
1D	-re	1f	-re	1d]	.	1a	.
1E	no-	0e	no-	1Bn	.	0g	.
1C	.	.	.	1c	.	.	.
=29	=29	=29	=29	=29	=29	=29	=29
0D	-bis,	0.d	-bis,	0A	-bis,	0f	-bis,
1G	.	.	.	1B-	.	1g	.
=30	=30	=30	=30	=30	=30	=30	=30
1F	.	0.r	.	1A	.	1a	.
0G	.	.	.	1B-	.	1d	.
.	.	.	.	2G/	.	1r	.
.	.	.	.	2r	.	.	.
=31	=31	=31	=31	=31	=31	=31	=31
0.r	.	0G	mi-	3%4dV	mi-	1g	mi-
.	.	.	.	.	.	2.b\	.
.	.	.	.	3%2dZ	-se-	.	.
.	.	.	.	.	.	4cc\	.
.	.	1G	-se-	[1g	-re-	1dd	-se-
=32	=32	=32	=32	=32	=32	=32	=32
0.r	.	0c	-re-	2g\]	.	2ee\	-re-
.	.	.	.	2g\	-re	1cc	.
.	.	.	.	3%2fV	no-	.	.
.	.	.	.	.	.	2b\	.
.	.	.	.	3%2.e	.	.	.
.	.	1c	-re	.	.	1a	.
.	.	.	.	3d\Z	.	.	.
=33	=33	=33	=33	=33	=33	=33	=33
1G	mi-	1B-	no-	1d	-bis,	1g	-re
0F	-se-	0A	.	0a	no-	2r	.
.	.	.	.	.	.	1cc	no-
.	.	.	.	.	.	2a/	.
=34	=34	=34	=34	=34	=34	=34	=34
1G	-re-	1G	-bis,	1d	.	1b	.
1E	.	1r	.	2c\	.	1g	.
.	.	.	.	2B-\	.	.	.
1D	-re	1r	.	1d	.	1a	.
=35	=35	=35	=35	=35	=35	=35	=35
1r	.	1d	no-	1G	.	2g/	.
.	.	.	.	.	.	1g	.
1G	no-	1d	-bis,	2.B-\	.	.	.
.	.	.	.	.	.	4f/	.
.	.	.	.	4c\	.	4e/	.
2.B-\	.	1G	.	1d	.	1d	-bis,
4c\	.	.	.	.	.	.	.
=36	=36	=36	=36	=36	=36	=36	=36
1d	.	1r	.	1G	-bis,	2r	.
.	.	.	.	.	.	1g	no-
1.G	.	1d	mi-	0g	mi-	.	.
.	.	.	.	.	.	1b-	.
.	.	1d	-se-	.	.	.	.
2A\	.	.	.	.	.	2cc\	.
=37	=37	=37	=37	=37	=37	=37	=37
1B-	.	1d	-re-	0f	-se-	2dd\	.
.	.	.	.	.	.	2b-i\	.
0F	.	0c	-re	.	.	2cc\	.
.	.	.	.	.	.	2.a/	.
.	.	.	.	1f	-re-	.	.
.	.	.	.	.	.	4g/	.
.	.	.	.	.	.	2a/	.
=38	=38	=38	=38	=38	=38	=38	=38
1G	.	1B-	no-	0d	-re	2b-i\	.
.	.	.	.	.	.	2g/	.
0D	.	0A	.	.	.	2a/	.
.	.	.	.	.	.	2.f#i/	.
.	.	.	.	1d	no-	.	.
.	.	.	.	.	.	4g/	.
.	.	.	.	.	.	4f#i/	.
.	.	.	.	.	.	4e/	.
=39	=39	=39	=39	=39	=39	=39	=39
0.Gl	-bis.	0.Gl	-bis.	2.B-\	-bis.	0.gl	-bis.
.	.	.	.	4c\	.	.	.
.	.	.	.	0dl	.	.	.
!!LO:LB:i:g=z
=40||	=40||	=40||	=40||	=40||	=40||	=40||	=40||
*>B	*>B	*>B	*>B	*>B	*>B	*>B	*>B
*clefF4	*	*clefGv2	*	*clefGv2	*	*clefG2	*
*k[b-]	*	*k[b-]	*	*k[b-]	*	*k[]	*
*M2/1	*	*M2/1	*	*M2/1	*	*M2/1	*
*met(C)	*	*met(C)	*	*met(C)	*	*met(C)	*
*MM480	*MM480	*MM480	*MM480	*MM480	*MM480	*MM480	*MM480
!!primary-mensuration: met(C)
!!section: Agnus Dei II
!!!OMD: Agnus Dei II
0r	.	0r	.	0r	.	0g	A-
=41.	=41.	=41.	=41.	=41.	=41.	=41.	=41.
0r	.	0r	.	0G	A-	3%4ddV	.
.	.	.	.	.	.	3cc\	.
.	.	.	.	.	.	3b-i\Z	.
=42	=42	=42	=42	=42	=42	=42	=42
0r	.	0r	.	3%4dV	.	0a	.
.	.	.	.	3c\	.	.	.
.	.	.	.	3B-\Z	.	.	.
=43.	=43.	=43.	=43.	=43.	=43.	=43.	=43.
0r	.	0r	.	0A	.	1.f	-gnus
.	.	.	.	.	.	2g/	.
=44	=44	=44	=44	=44	=44	=44	=44
0r	.	0r	.	1.F	-gnus	1a	de-
.	.	.	.	.	.	1b-i	.
.	.	.	.	2G/	.	.	.
=45.	=45.	=45.	=45.	=45.	=45.	=45.	=45.
0r	.	0r	.	1A	de-	1a	.
.	.	.	.	1B-	.	1dd	.
=46	=46	=46	=46	=46	=46	=46	=46
0r	.	0r	.	1A	.	2cc\	.
.	.	.	.	.	.	2a/	.
.	.	.	.	1d	.	2b-i\	.
.	.	.	.	.	.	[2a/	.
=47.	=47.	=47.	=47.	=47.	=47.	=47.	=47.
0r	.	0r	.	2c\	.	2a/]	.
.	.	.	.	2A/	.	2f/	.
.	.	.	.	1B-	.	2.g/	.
.	.	.	.	.	.	4f/	.
=48	=48	=48	=48	=48	=48	=48	=48
0r	.	0r	.	1A	.	1a	-i,
.	.	.	.	1f	.	1r	.
=49.	=49.	=49.	=49.	=49.	=49.	=49.	=49.
0r	.	0r	.	1e	-i,	1g	qui
.	.	.	.	1d	.	2a/	.
.	.	.	.	.	.	[2f/	.
=50	=50	=50	=50	=50	=50	=50	=50
0r	.	0r	.	1r	.	2f/]	.
.	.	.	.	.	.	2d/	.
.	.	.	.	1g	qui	1e	.
=51.	=51.	=51.	=51.	=51.	=51.	=51.	=51.
0r	.	0r	.	2f\	tol-	1d	.
.	.	.	.	2.a\	.	.	.
.	.	.	.	.	.	1r	.
.	.	.	.	4g\	.	.	.
.	.	.	.	2f\	.	.	.
=52	=52	=52	=52	=52	=52	=52	=52
0r	.	0r	.	1e	.	1g	tol-
.	.	.	.	[1d	.	2f/	.
.	.	.	.	.	.	2a/	.
=53.	=53.	=53.	=53.	=53.	=53.	=53.	=53.
0r	.	0r	.	1d]	.	4b-i\	.
.	.	.	.	.	.	4a/	.
.	.	.	.	.	.	4g/	.
.	.	.	.	.	.	4f/	.
.	.	.	.	1c#i	.	1e	.
=54	=54	=54	=54	=54	=54	=54	=54
0r	.	0r	.	1d	-lis,	1f	-lis,
.	.	.	.	1r	.	1d	.
=55.	=55.	=55.	=55.	=55.	=55.	=55.	=55.
0r	.	0r	.	1G	qui	2r	.
.	.	.	.	.	.	2g/	qui
.	.	.	.	1B-	.	2f/	.
.	.	.	.	.	.	2g/	.
=56	=56	=56	=56	=56	=56	=56	=56
0r	.	0r	.	2A/	tol-	1a	tol-
.	.	.	.	1c	.	.	.
.	.	.	.	.	.	2g/	.
.	.	.	.	2B-\	.	[2dd\	.
=57.	=57.	=57.	=57.	=57.	=57.	=57.	=57.
0r	.	0r	.	1G	.	4dd\]	.
.	.	.	.	.	.	4cc\	.
.	.	.	.	.	.	2b-i\	.
.	.	.	.	1F	.	2a/	.
.	.	.	.	.	.	[2cc\	.
=58	=58	=58	=58	=58	=58	=58	=58
0r	.	0r	.	1c	.	4cc\]	.
.	.	.	.	.	.	4b-i\	.
.	.	.	.	.	.	2a/	.
.	.	.	.	2B-\	.	1g	.
.	.	.	.	[2c\	.	.	.
=59.	=59.	=59.	=59.	=59.	=59.	=59.	=59.
0r	.	0r	.	2c\]	.	2a/	.
.	.	.	.	2G/	.	2g/	.
.	.	.	.	1A	.	2e/	.
.	.	.	.	.	.	2f/	.
=60	=60	=60	=60	=60	=60	=60	=60
0r	.	0r	.	0G	-lis	3%2gV	.
.	.	.	.	.	.	3a/	.
.	.	.	.	.	.	3g/	.
.	.	.	.	.	.	3f/	.
.	.	.	.	.	.	3e/Z	.
=61.	=61.	=61.	=61.	=61.	=61.	=61.	=61.
0r	.	0r	.	1r	.	2d/	.
.	.	.	.	.	.	1g	.
.	.	.	.	[1G	pec-	.	.
.	.	.	.	.	.	2a/	.
=62	=62	=62	=62	=62	=62	=62	=62
0r	.	0r	.	0G]	.	1b-i	-lis
.	.	.	.	.	.	1g	.
=63.	=63.	=63.	=63.	=63.	=63.	=63.	=63.
0r	.	0r	.	0c	.	1r	.
.	.	.	.	.	.	1g	pec-
=64	=64	=64	=64	=64	=64	=64	=64
0r	.	0r	.	1c	-ca-	1a	-ca-
.	.	.	.	1B-	.	1d	.
=65.	=65.	=65.	=65.	=65.	=65.	=65.	=65.
0r	.	0r	.	0A	.	2e/	.
.	.	.	.	.	.	1f	.
.	.	.	.	.	.	2e/	.
=66	=66	=66	=66	=66	=66	=66	=66
0r	.	0r	.	0G	-ta	1g	.
.	.	.	.	.	.	1b-i	.
=67.	=67.	=67.	=67.	=67.	=67.	=67.	=67.
0r	.	0r	.	0d	.	1a	-ta
.	.	.	.	.	.	1dd	.
=68	=68	=68	=68	=68	=68	=68	=68
0r	.	0r	.	0G	mun-	1r	.
.	.	.	.	.	.	1g	mun-
=69.	=69.	=69.	=69.	=69.	=69.	=69.	=69.
0r	.	0r	.	0d	.	2a/	.
.	.	.	.	.	.	2.f/	.
.	.	.	.	.	.	4g/	.
.	.	.	.	.	.	2a/	.
=70	=70	=70	=70	=70	=70	=70	=70
0r	.	0r	.	1d	.	2b-\	.
.	.	.	.	.	.	1a	.
.	.	.	.	[1c	.	.	.
.	.	.	.	.	.	4g/	.
.	.	.	.	.	.	4f/	.
=71.	=71.	=71.	=71.	=71.	=71.	=71.	=71.
0r	.	0r	.	2c\]	.	2e/	.
.	.	.	.	2G/	.	2d/	.
.	.	.	.	1B-	.	2g/	.
.	.	.	.	.	.	4f/	.
.	.	.	.	.	.	4g/	.
=72	=72	=72	=72	=72	=72	=72	=72
0r	.	0r	.	0A	.	2a/	.
.	.	.	.	.	.	2e/	.
.	.	.	.	.	.	2.f#i/	.
.	.	.	.	.	.	4e/	.
=73.	=73.	=73.	=73.	=73.	=73.	=73.	=73.
0r	.	0r	.	1G	-di,	0g	-di,
.	.	.	.	1r	.	.	.
=74	=74	=74	=74	=74	=74	=74	=74
3%4DV	mi-	0r	.	3%2.dV	mi-	0r	.
.	.	.	.	3e\	.	.	.
3%2DZ	-se-	.	.	3%2fZ	-se-	.	.
=75.	=75.	=75.	=75.	=75.	=75.	=75.	=75.
3%4GV	-re-	0r	.	3%2dV	-re-	0r	.
.	.	.	.	3%2.g	.	.	.
3%2GZ	-re	.	.	.	.	.	.
.	.	.	.	3f\Z	.	.	.
=76	=76	=76	=76	=76	=76	=76	=76
3%2FV	no-	0r	.	3%4dV	.	0r	.
3%4EZ	.	.	.	.	.	.	.
.	.	.	.	3%2cZ	.	.	.
=77.	=77.	=77.	=77.	=77.	=77.	=77.	=77.
0D	.	0r	.	3%2.dV	-re	0r	.
.	.	.	.	3c\	.	.	.
.	.	.	.	3%2AZ	.	.	.
=78	=78	=78	=78	=78	=78	=78	=78
3%4AV	.	0r	.	3%2rV	.	0r	.
.	.	.	.	3%2c	no-	.	.
3%2DZ	-bis,	.	.	3%2dZ	.	.	.
=79.	=79.	=79.	=79.	=79.	=79.	=79.	=79.
3%2rV	.	0r	.	3%2fV	.	0r	.
[3%4AZ	no-	.	.	3e\Z	.	.	.
.	.	.	.	3%2aV	.	.	.
.	.	.	.	3g\Z	.	.	.
=80	=80	=80	=80	=80	=80	=80	=80
3%2A]V	.	0r	.	3%2fV	.	0r	.
3%4GZ	.	.	.	3%2.e	.	.	.
.	.	.	.	3d\Z	.	.	.
=81.	=81.	=81.	=81.	=81.	=81.	=81.	=81.
3%2FV	.	0r	.	3%2.dV	.	0r	.
3%4EZ	.	.	.	.	.	.	.
.	.	.	.	3c#i\	.	.	.
.	.	.	.	3c#i\	.	.	.
.	.	.	.	3Bni\Z	.	.	.
=82	=82	=82	=82	=82	=82	=82	=82
0D	-bis,	0r	.	[0d	-bis,	0r	.
=83.	=83.	=83.	=83.	=83.	=83.	=83.	=83.
0G	mi-	0r	.	0d]	.	0g	mi-
=84	=84	=84	=84	=84	=84	=84	=84
0F	-se-	0r	.	0r	.	0a	-se-
=85.	=85.	=85.	=85.	=85.	=85.	=85.	=85.
0G	-re-	0r	.	0g	mi-	0b-i	-re-
=86	=86	=86	=86	=86	=86	=86	=86
0D	-re,	0r	.	0f	-se-	0a	-re,
=87.	=87.	=87.	=87.	=87.	=87.	=87.	=87.
0r	.	0r	.	0g	-re-	1g	mi-
.	.	.	.	.	.	[1dd	.
=88	=88	=88	=88	=88	=88	=88	=88
0G	mi-	0r	.	0d	-re,	2dd\]	.
.	.	.	.	.	.	2cc\	.
.	.	.	.	.	.	1b-	-se-
=89.	=89.	=89.	=89.	=89.	=89.	=89.	=89.
0F	-se-	0r	.	0r	.	0a	-re-
=90	=90	=90	=90	=90	=90	=90	=90
3%4GV	-re-	0r	.	0g	mi-	1b-	.
.	.	.	.	.	.	1g	.
3F\	.	.	.	.	.	.	.
3E\Z	.	.	.	.	.	.	.
=91.	=91.	=91.	=91.	=91.	=91.	=91.	=91.
0D	-re,	0r	.	0f	-se-	0a	.
=92	=92	=92	=92	=92	=92	=92	=92
0r	.	0r	.	3%4gV	-re-	1b-i	-re
.	.	.	.	.	.	1g	.
.	.	.	.	3f\	.	.	.
.	.	.	.	3e\Z	.	.	.
=93.	=93.	=93.	=93.	=93.	=93.	=93.	=93.
0G	no-	0r	.	0d	-re	1r	.
.	.	.	.	.	.	[1g	no-
=94	=94	=94	=94	=94	=94	=94	=94
0E	.	0r	.	1r	.	2g/]	.
.	.	.	.	.	.	2f/	.
.	.	.	.	1g	no-	2e/	.
.	.	.	.	.	.	2d/	.
=95.	=95.	=95.	=95.	=95.	=95.	=95.	=95.
0F	.	0r	.	0a	.	1c	.
.	.	.	.	.	.	1f	.
=96	=96	=96	=96	=96	=96	=96	=96
1G	.	0r	.	1g	.	2e/	.
.	.	.	.	.	.	2d/	.
1D	.	.	.	1f	.	[1d	.
=97.	=97.	=97.	=97.	=97.	=97.	=97.	=97.
0A	.	0r	.	0e	.	1d]	.
.	.	.	.	.	.	1c#i	.
=98	=98	=98	=98	=98	=98	=98	=98
0D	-bis,	0r	.	0d	-bis,	1d	-bis,
.	.	.	.	.	.	1r	.
=99.	=99.	=99.	=99.	=99.	=99.	=99.	=99.
0G	no-	0r	.	0r	.	3%4dV	mi-
.	.	.	.	.	.	3%2dZ	-se-
=100	=100	=100	=100	=100	=100	=100	=100
0B-	.	0r	.	3%4GV	mi-	3%4gV	-re-
.	.	.	.	3%2GZ	-se-	3%2gZ	-re
=101.	=101.	=101.	=101.	=101.	=101.	=101.	=101.
0A	-bis,	0r	.	3%4cV	-re-	3%2fV	no-
.	.	.	.	.	.	3%2.e	.
.	.	.	.	3%2cZ	-re	.	.
.	.	.	.	.	.	3d/Z	.
=102	=102	=102	=102	=102	=102	=102	=102
1r	.	0r	.	3%2B-V	no-	3%2dV	.
.	.	.	.	3%4AZ	.	3%2e	.
1c	mi-	.	.	.	.	.	.
.	.	.	.	.	.	3%2fZ	.
=103.	=103.	=103.	=103.	=103.	=103.	=103.	=103.
1B-	.	0r	.	0G	.	1gV	.
1d	-se-	.	.	.	.	3d/	.
.	.	.	.	.	.	3%2gZ	.
=104	=104	=104	=104	=104	=104	=104	=104
3%4DV	-re-	0r	.	3%4dV	-bis,	3%2aV	.
.	.	.	.	.	.	3%2f	.
3%2EZ	.	.	.	3%2GZ	.	3g/	-bis,
.	.	.	.	.	.	3rZ	.
=105.	=105.	=105.	=105.	=105.	=105.	=105.	=105.
3%2GV	-re,	0r	.	3%2r	.	3%2b-V	no-
3%2F	.	.	.	[3%4d	no-	3a/	.
.	.	.	.	.	.	3%2dd	.
3%2GZ	.	.	.	.	.	.	.
.	.	.	.	.	.	3cc\Z	.
=106	=106	=106	=106	=106	=106	=106	=106
3%2rV	.	0r	.	3%2d]	.	3%2b-iV	.
3%2A	no-	.	.	3%4c	.	3%2.a	.
3%2FZ	.	.	.	.	.	.	.
.	.	.	.	.	.	3g/Z	.
=107.	=107.	=107.	=107.	=107.	=107.	=107.	=107.
3%2GV	.	0r	.	3%2B-V	.	3%4gV	.
3%4DZ	.	.	.	3%4AZ	.	.	.
.	.	.	.	.	.	3%2f#iZ	.
=108	=108	=108	=108	=108	=108	=108	=108
0dl	-bis.	0r	.	0Gl	-bis.	0gl	-bis.
!!LO:LB:i:g=z
=109||	=109||	=109||	=109||	=109||	=109||	=109||	=109||
*>C	*>C	*>C	*>C	*>C	*>C	*>C	*>C
*clefF4	*	*clefGv2	*	*clefGv2	*	*clefG2	*
*k[b-]	*	*k[b-]	*	*k[b-]	*	*k[]	*
*M3/1	*	*M3/1	*	*M3/1	*	*M3/1	*
*met(O)	*	*met(O)	*	*met(O)	*	*met(O)	*
*MM320	*MM320	*MM320	*MM320	*MM320	*MM320	*MM320	*MM320
!!section: Agnus Dei III
!!!OMD: Agnus Dei III
!	!	!LO:TX:X=-40:Z=-2:t=[2 T statements&colon; retrograde, then forwards at double speed]	!	!	!	!	!
!	!	!LO:TX:X=-40:Z=16:t=Cancer eat plenus sed redeat medius (the crab goes out full but comes back half)	!	!	!	!	!
0.r	.	[0.G	A-	1r	.	1d	A-
.	.	.	.	1r	.	1e	.
.	.	.	.	1d	A-	1d	.
=110	=110	=110	=110	=110	=110	=110	=110
0.r	.	0.G]	.	1e	.	1.g	.
.	.	.	.	1d	.	.	.
.	.	.	.	.	.	2a/	.
.	.	.	.	1g	.	1b	.
=111	=111	=111	=111	=111	=111	=111	=111
0F	A-	0A	.	2c\	.	1cc	-gnus
.	.	.	.	1f	.	.	.
.	.	.	.	.	.	1a	.
.	.	.	.	2e\	.	.	.
1G	.	1B-	.	1d	.	1g	.
=112	=112	=112	=112	=112	=112	=112	=112
0A	.	0c	.	1.f	-gnus	2r	.
.	.	.	.	.	.	1cc	de-
.	.	.	.	2e\	.	2a/	.
[1G	.	1d	-gnus	1g	.	2b\	.
.	.	.	.	.	.	2cc\	.
=113	=113	=113	=113	=113	=113	=113	=113
1G]	.	1d	de-	1r	.	1.dd	.
0D	.	1d	-i,	1a	de-	.	.
.	.	.	.	.	.	2cc\	.
.	.	1r	.	1f	.	1a	-i,
=114	=114	=114	=114	=114	=114	=114	=114
1E	.	1G	a-	1g	.	2r	.
.	.	.	.	.	.	2g/	a-
1D	-gnus	1d	.	2a\	.	2f/	.
.	.	.	.	2f\	.	2a/	.
1G	.	1d	-gnus	2.g\	.	2b-i\	.
.	.	.	.	.	.	[2g/	.
.	.	.	.	8f\L	.	.	.
.	.	.	.	8e\J	.	.	.
=115	=115	=115	=115	=115	=115	=115	=115
1G	de-	1r	.	1d	.	2g/]	.
.	.	.	.	.	.	4f/	.
.	.	.	.	.	.	4e/	.
2B-\	.	1r	.	1G	.	1d	-gnus
2c\	.	.	.	.	.	.	.
1d	.	1G	de-	1g	.	1b-	de-
=116	=116	=116	=116	=116	=116	=116	=116
0c	.	0A	.	2e\	.	2a/	.
.	.	.	.	2f\	.	1a	.
.	.	.	.	1e	-i,	.	.
.	.	.	.	.	.	2g/	.
1d	.	1B-	-i,	1d	.	1f	.
=117	=117	=117	=117	=117	=117	=117	=117
0.A	.	1c	a-	2r	.	0e	.
.	.	.	.	1a	qui	.	.
.	.	0c	-gnus	.	.	.	.
.	.	.	.	2a\	tol-	.	.
.	.	.	.	1a	-lis	1e	.
=118	=118	=118	=118	=118	=118	=118	=118
0.B-	-i,	1G	de-	2g\	pec-	1d	-i,
.	.	.	.	1g	-ca-	.	.
.	.	0G	-i,	.	.	1r	.
.	.	.	.	2f\	.	.	.
.	.	.	.	1d	.	1g	qui
=119	=119	=119	=119	=119	=119	=119	=119
0.A	qui	0.r	.	1e	.	2a/	.
.	.	.	.	.	.	1a	tol-
.	.	.	.	1.c	.	.	.
.	.	.	.	.	.	2g/	.
.	.	.	.	.	.	2e/	.
.	.	.	.	2B-\	.	2f/	.
=120	=120	=120	=120	=120	=120	=120	=120
0.G	tol-	0.r	.	1d	.	1g	.
.	.	.	.	0B-	.	1d	.
.	.	.	.	.	.	1g	.
=121	=121	=121	=121	=121	=121	=121	=121
0.D	-lis,	[0.d	qui	0A	-ta,	1.f	.
.	.	.	.	.	.	2g/	.
.	.	.	.	1r	.	[1a	.
=122	=122	=122	=122	=122	=122	=122	=122
1r	.	0.d]	.	1.a	qui	2a/]	.
.	.	.	.	.	.	1dd	.
1r	.	.	.	.	.	.	.
.	.	.	.	1.f	tol-	2cc\	.
1d	qui	.	.	.	.	2.b\	.
.	.	.	.	.	.	4a/	.
=123	=123	=123	=123	=123	=123	=123	=123
1.c	tol-	0e	tol-	0g	-lis	1cc	-lis,
.	.	.	.	.	.	1r	.
2B-\	.	.	.	.	.	.	.
1A	.	1f	.	1c	pec-	1cc	qui
=124	=124	=124	=124	=124	=124	=124	=124
1G	.	1g	.	2d\	-ca-	1b	tol-
.	.	.	.	2e\	.	.	.
1F	-lis,	0a	.	0f	.	2a/	.
.	.	.	.	.	.	1cc	.
1F	qui	.	.	.	.	.	.
.	.	.	.	.	.	2cc\	.
=125	=125	=125	=125	=125	=125	=125	=125
0G	tol-	1g	-lis	1d	.	2b\	.
.	.	.	.	.	.	2cc\	.
.	.	1r	.	0g	.	1dd	-lis
1G	-lis	1d	pec-	.	.	1b	.
=126	=126	=126	=126	=126	=126	=126	=126
1.c	pec-	1e	-ca-	1g	-ta,	2r	.
.	.	.	.	.	.	1cc	pec-
.	.	0g	.	0e	.	.	.
2B-\	.	.	.	.	.	2dd\	.
1c	.	.	.	.	.	1ee	.
=127	=127	=127	=127	=127	=127	=127	=127
2d\	.	1f	-ta,	1r	.	0dd	-ca-
1d	-ca-	.	.	.	.	.	.
.	.	0f	pec-	0a	pec-	.	.
4c\	.	.	.	.	.	.	.
4B-\	.	.	.	.	.	.	.
1A	.	.	.	.	.	1cc	-ta
=128	=128	=128	=128	=128	=128	=128	=128
0G	.	1g	-ca-	1.d	-ca-	2b\	mun-
.	.	.	.	.	.	1dd	.
.	.	0g	-ta	.	.	.	.
.	.	.	.	2e\	.	2cc\	.
1G	-ta	.	.	2d\	.	2b\	.
.	.	.	.	4c\	.	2g/	.
.	.	.	.	4B-\	.	.	.
=129	=129	=129	=129	=129	=129	=129	=129
1F	mun-	1r	.	1A	.	1a	.
1G	.	0d	mun-	1B-	.	1g	.
1D	.	.	.	1A	-ta,	2.f/	.
.	.	.	.	.	.	8e/L	.
.	.	.	.	.	.	8d/J	.
=130	=130	=130	=130	=130	=130	=130	=130
0.E-	-di,	1g	-di,	1r	.	0c	-di,
.	.	0g	pec-	1.G	pec-	.	.
.	.	.	.	.	.	1r	.
.	.	.	.	2F/	.	.	.
=131	=131	=131	=131	=131	=131	=131	=131
0.D	pec-	1f	-ca-	1.A	-ca-	0.d	pec-
.	.	0f	-ta-	.	.	.	.
.	.	.	.	1B-	.	.	.
.	.	.	.	2A/	.	.	.
=132	=132	=132	=132	=132	=132	=132	=132
0.C	-ca-	1g	-mun-	1c	.	0.e-	-ca-
.	.	0g	-di	1G	.	.	.
.	.	.	.	1c	.	.	.
=133	=133	=133	=133	=133	=133	=133	=133
0.G	-ta,	0.r	.	1.B-	-ta	0d	-ta
.	.	.	.	2c\	.	.	.
.	.	.	.	1d	.	[1g	mun-
=134	=134	=134	=134	=134	=134	=134	=134
1r	.	0.G	pec-	1d	mun-	2g/]	.
.	.	.	.	.	.	2f/	.
1r	.	.	.	2.g\	-di,	1d	.
.	.	.	.	4f\	.	.	.
1G	pec-	.	.	1d	.	1g	.
=135	=135	=135	=135	=135	=135	=135	=135
1G	-ca-	1d	-ca-	2r	.	1b-	.
.	.	.	.	2G/	mun-	.	.
1F	.	1d	-ta	1A	.	1a	.
1G	-ta	1d	mun-	2B-\	.	2g/	.
.	.	.	.	2G/	.	[2dd\	.
=136	=136	=136	=136	=136	=136	=136	=136
2G\	mun-	0.G	-di,	1g	.	2dd\]	.
1d	.	.	.	.	.	1b-i	.
.	.	.	.	2f\	.	.	.
2c\	.	.	.	2g\	.	2cc\	.
2.B-\	.	.	.	2d\	.	2.dd\	.
.	.	.	.	2e\	.	.	.
8A\L	.	.	.	.	.	4cc\	.
8G\J	.	.	.	.	.	.	.
=137	=137	=137	=137	=137	=137	=137	=137
1F	-di,	1A	pec-	1f	.	1a	-di,
0G	pec-	0B-	.	2e\	.	1g	.
.	.	.	.	1d	.	.	.
.	.	.	.	.	.	2r	.
.	.	.	.	2d\	.	2b-i\	pec-
=138	=138	=138	=138	=138	=138	=138	=138
1A	-ca-	0c	-ca-	2c\	.	2a/	-ca-
.	.	.	.	4B-\	.	2f/	.
.	.	.	.	4A/	.	.	.
1E	.	.	.	1G	.	1g	.
1D	-ta	1d	-ta	1A	.	2f/	.
.	.	.	.	.	.	[2a/	.
=139	=139	=139	=139	=139	=139	=139	=139
1r	.	1d	mun-	1F	-di,	2a/]	.
.	.	.	.	.	.	2b-i\	.
1G	mun-	1d	-di,	2r	.	2g/	.
.	.	.	.	2G/	pec-	2b-i\	.
1D	.	1r	.	2A/	.	1a	.
.	.	.	.	2B-\	.	.	.
=140	=140	=140	=140	=140	=140	=140	=140
1E	.	1G	qui	1c	-ca-	2g/	-ta,
.	.	.	.	.	.	2r	.
2D\	.	1d	tol-	4d\	.	2f/	pec-
.	.	.	.	4c\	.	.	.
1G	.	.	.	2B-\	.	2g/	.
.	.	1d	-lis	2G/	.	2b-i\	-ca-
2F\	.	.	.	2A/	.	2a/	.
=141	=141	=141	=141	=141	=141	=141	=141
1G	-di,	1r	.	2G/	.	2b-i\	.
.	.	.	.	1d	.	1g	.
1r	.	[0G	pec-	.	.	.	.
.	.	.	.	2d\	-ta	1dd	.
[1d	pec-	.	.	2r	.	.	.
.	.	.	.	[2B-\	mun-	2g/	.
=142	=142	=142	=142	=142	=142	=142	=142
1d]	.	0.G]	.	2B-\]	.	2b-i\	.
.	.	.	.	2c\	.	2a/	.
0B-	.	.	.	1d	.	2g/	.
.	.	.	.	.	.	4f/	.
.	.	.	.	.	.	4e/	.
.	.	.	.	1G	.	1d	-ta
=143	=143	=143	=143	=143	=143	=143	=143
1.c	-ca-	0A	-ca-	0F	-di,	1r	.
.	.	.	.	.	.	1a	mun-
1.d	.	.	.	.	.	.	.
.	.	1B-	.	1G	.	[1g	.
=144	=144	=144	=144	=144	=144	=144	=144
1.e	-ta	1c	-ta	1r	.	1g]	.
.	.	0c	mun-	0g~	do-	0cc	-di,
1.e	mun-	.	.	.	.	.	.
=145	=145	=145	=145	=145	=145	=145	=145
0d	-di	[0.G	-di,	1.g	-na	1.b	do-
.	.	.	.	2f\	.	2cc\	.
2B-\	.	.	.	1d	.	1dd	-na
2c\	.	.	.	.	.	.	.
=146	=146	=146	=146	=146	=146	=146	=146
0.d	.	0.G]	.	2r	.	1dd	no-
.	.	.	.	1g	no-	.	.
.	.	.	.	.	.	1.b	.
.	.	.	.	2f\	.	.	.
.	.	.	.	2g\	.	.	.
.	.	.	.	2e\	.	2g/	.
=147	=147	=147	=147	=147	=147	=147	=147
*	*	*rscale:2	*	*	*	*	*
1r	.	[1.G	do-	1d	-bis,	1.g	-bis,
!LO:N:vis=1	!	!	!	!LO:N:vis=1	!	!	!
2r	.	.	.	2r	.	.	.
=-	=-	=	=	=-	=-	=-	=-
2ryy	.	1.G]	.	2ryy	.	2f/	.
1G	do-	.	.	1g	do-	1d	.
=148	=148	=148	=148	=148	=148	=148	=148
2F\	.	1c	.	2.a\	.	1r	.
1A	.	.	.	.	.	.	.
.	.	.	.	4g\	.	.	.
!	!	!	!	!	!	!LO:N:vis=1	!
.	.	2c\	-na	2e\	.	2r	.
=-	=-	=	=	=-	=-	=-	=-
2d\	.	2B-\	no-	2g\	.	2ryy	.
1c	.	1A	.	2.f#i\	.	1a	do-
.	.	.	.	4e\	.	.	.
=149	=149	=149	=149	=149	=149	=149	=149
1d	-na	[1.G	-bis,	1g	-na	2b\	-na
.	.	.	.	.	.	2cc\	.
!LO:N:vis=1	!	!	!	!	!	!LO:N:vis=1	!
[y2B-/	.	.	.	2r	.	[y2dd	.
=-	=-	=	=	=-	=-	=-	=-
2B-/]yy	.	1G]	.	2.d\	no-	2dd]yy	.
1G	.	.	.	.	.	2b-i\	.
.	.	.	.	4c\	.	.	.
.	.	2r	.	2B-\	.	2g/	.
=150	=150	=150	=150	=150	=150	=150	=150
1D	no-	2d\	do-	2.A/	.	2r	.
.	.	2d\	-na,	.	.	2f/	no-
.	.	.	.	4B-\	.	.	.
2E\	.	2G/	.	2c\	.	2g/	.
=-	=-	=	=	=-	=-	=-	=-
1D	.	2r	.	2d\	.	1a	.
.	.	2d\	do-	2A/	.	.	.
[2G\	.	2d\	-na	2G/	.	[2b-i\	.
=151	=151	=151	=151	=151	=151	=151	=151
2G\]	.	2d\	no-	2g\	.	2b-\]	.
2A\	.	1c	-bis	2e\	.	2.a/	.
2F\	.	.	.	2f\	.	.	.
.	.	.	.	.	.	4g/	.
=-	=-	=	=	=-	=-	=-	=-
2G\	.	2B-\	pa-	1.d	-bis	1g	.
1D	-bis,	1A	.	.	.	.	.
.	.	.	.	.	.	2f/	.
=152	=152	=152	=152	=152	=152	=152	=152
2r	.	1.G	-cem,	2.B-\	pa-	2.g/	.
!LO:N:vis=1.	!	!	!	!	!	!	!
[y1E	do-	.	.	.	.	.	.
.	.	.	.	4A/	.	4f/	.
!	!	!	!	!LO:N:vis=2.	!	!	!
.	.	.	.	[y2G/	.	2g/	.
=-	=-	=	=	=-	=-	=-	=-
2E]yy	.	2d\	do-	4G/]yy	.	2a/	.
.	.	.	.	4F/	.	.	.
1D	-na	2d\	-na	1A	.	2.f#i/	.
.	.	2d\	no-	.	.	.	.
.	.	.	.	.	.	4e/	.
=153	=153	=153	=153	=153	=153	=153	=153
2r	.	1.G	-bis,	1B-	-cem,	1g	-bis,
!LO:N:vis=1.	!	!	!	!	!	!	!
1d	no-	.	.	.	.	.	.
!	!	!	!	!LO:N:vis=1.	!	!LO:N:vis=1	!
.	.	.	.	[y2G	.	2r	.
=-	=-	=	=	=-	=-	=-	=-
2d]yy	.	1.r	.	1G]yy	.	2ryy	.
1d	-bis	.	.	.	.	2g/	do-
.	.	.	.	[2B-\	do-	2f/	.
=154	=154	=154	=154	=154	=154	=154	=154
1.G	pa-	1g	do-	2B-\]	.	[1.d	.
.	.	.	.	2G/	.	.	.
!	!	!	!	!LO:N:vis=1	!	!	!
.	.	2g\	-na	[y2B-	.	.	.
=-	=-	=	=	=-	=-	=-	=-
1.D	-cem,	1f	no-	2B-]yy	.	1.d_	.
.	.	.	.	1A	-na	.	.
.	.	2f\	-bis	.	.	.	.
=155	=155	=155	=155	=155	=155	=155	=155
!	!	!	!	!LO:N:vis=0	!	!	!
2r	.	1g	pa-	[y1.B-	no-	1d]	.
!LO:N:vis=1	!	!	!	!	!	!	!
[y1G	no-	.	.	.	.	.	.
!	!	!	!	!	!	!LO:N:vis=1	!
.	.	2g\	-cem,	.	.	[y2g	-na
=-	=-	=	=	=-	=-	=-	=-
2G]yy	.	1d	.	2B-]yy	.	2g]yy	.
1D	.	.	.	1A	.	2f/	no-
.	.	2r	.	.	.	2a/	.
=156	=156	=156	=156	=156	=156	=156	=156
!	!	!	!	!	!	!LO:N:vis=0	!
2B-\	.	1g	do-	1G	-bis	[y1.d	-bis
2G\	.	.	.	.	.	.	.
!LO:N:vis=1	!	!	!	!LO:N:vis=1	!	!	!
[y2B-	-bis	2g\	-na	2r	.	.	.
=-	=-	=	=	=-	=-	=-	=-
2B-]yy	.	1f	no-	2ryy	.	2d]yy	.
1A	.	.	.	1c	pa-	1a	pa-
.	.	2f\	-bis	.	.	.	.
=157	=157	=157	=157	=157	=157	=157	=157
!LO:N:vis=0	!	!	!	!	!	!	!
[y1.G	pa-	1g	pa-	1d	.	1b-	.
!	!	!	!	!LO:N:vis=2.	!	!LO:N:vis=1	!
.	.	2e\	-cem,	[y2B-\	.	[y2g	.
=-	=-	=	=	=-	=-	=-	=-
2G]yy	.	2d\	.	4B-\]yy	.	2g]yy	.
.	.	.	.	4c\	.	.	.
1B-	.	2r	.	1d	.	1dd	.
.	.	2g\	do-	.	.	.	.
=158	=158	=158	=158	=158	=158	=158	=158
2.A\	.	1a	-na	2f\	.	2cc\	.
.	.	.	.	1e	.	2.ee\	.
4B-\	.	.	.	.	.	.	.
2c\	.	2g\	no-	.	.	.	.
.	.	.	.	.	.	4dd\	.
=-	=-	=	=	=-	=-	=-	=-
2d\	.	2f\	-bis	1.a	.	1dd	.
1A	.	1e	pa-	.	.	.	.
.	.	.	.	.	.	2cc#i\	.
=159	=159	=159	=159	=159	=159	=159	=159
!LO:N:vis=0	!	!	!	!	!	!	!
[y1.D	-cem,	[1.d	-cem,	1a	-cem,	1dd	-cem,
!	!	!	!	!LO:N:vis=1	!	!LO:N:vis=1	!
.	.	.	.	[y2f	.	2r	.
=-	=-	=	=	=-	=-	=-	=-
2D]yy	.	1.d]	.	2f]yy	.	2ryy	.
1D	do-	.	.	2r	.	1a	do-
.	.	.	.	[2d\	do-	.	.
=160	=160	=160	=160	=160	=160	=160	=160
1G	.	1.r	.	2d\]	.	2b\	.
.	.	.	.	2e\	.	2g/	.
!LO:N:vis=1	!	!	!	!LO:N:vis=1	!	!LO:N:vis=1	!
[y2F	.	.	.	[y2f	.	[y2a	.
=-	=-	=	=	=-	=-	=-	=-
2F]yy	.	1.r	.	2f]yy	.	2a]yy	.
1G	-na	.	.	1d	-na	1g	-na
=161	=161	=161	=161	=161	=161	=161	=161
!	!	!	!	!LO:N:vis=0	!	!	!
2r	.	1G	do-	[y1.g	no-	2.b\	no-
1d	no-	.	.	.	.	.	.
.	.	.	.	.	.	4cc\	.
.	.	2G/	-na	.	.	2dd\	.
=-	=-	=	=	=-	=-	=-	=-
2c\	.	1c	no-	2g]yy	.	1ee	.
1A	-bis	.	.	1a	-bis	.	.
.	.	2c\	-bis	.	.	2cc\	.
=162	=162	=162	=162	=162	=162	=162	=162
2G\	pa-	2B-\	pa-	2d\	pa-	2dd\	-bis
2A\	.	1A	.	2f\	.	2cc\	.
2c\	.	.	.	2e\	.	2a/	.
=-	=-	=	=	=-	=-	=-	=-
2B-\	.	2G/	-cem,	1g	.	2r	.
1d	.	2r	.	.	.	2b-i\	pa-
.	.	2r	.	2f\	.	2a/	.
=163	=163	=163	=163	=163	=163	=163	=163
2.G\	-cem,	2d\	do-	2g\	-cem,	2b-i\	.
.	.	2d\	-na,	2r	.	1g	.
4F\	.	.	.	.	.	.	.
2E\	.	2G/	.	2c\	pa-	.	.
=-	=-	=	=	=-	=-	=-	=-
2D\	.	2r	.	2d\	.	1f	.
2r	.	2d\	do-	2B-\	.	.	.
[2B-\	pa-	2d\	-na	2G/	.	[2g/	.
=164	=164	=164	=164	=164	=164	=164	=164
2B-\]	.	2d\	no-	2d\	.	2g/]	.
2A\	.	1c	-bis	2e\	.	2.a/	.
2F\	.	.	.	2f\	.	.	.
.	.	.	.	.	.	4g/	.
=-	=-	=	=	=-	=-	=-	=-
2G\	.	2B-\	pa-	1.d	.	1g	.
1D	.	1A	.	.	.	.	.
.	.	.	.	.	.	2f#i/	.
=165	=165	=165	=165	=165	=165	=165	=165
0.Gl	-cem.	0.Gl	-cem.	1d	.	0.gl	-cem.
.	.	.	.	2B-\	.	.	.
.	.	.	.	2c\	.	.	.
.	.	.	.	1dl	-cem.	.	.
*	*	*rscale:1	*	*	*	*	*
==	==	==	==	==	==	==	==
*-	*-	*-	*-	*-	*-	*-	*-
!!!RDF**kern: l=long note in original notation
!!!RDF**kern: i=editorial accidental
!!!RDF**kern: V=start of tuplet marker
!!!RDF**kern: Z=end of tuplet marker
!!!ENC:	Planchart/Rodin
!!!END:	2013/12/07/
!!!EED:	Jesse Rodin
!!!EEV:	2013/12/09/
!!!ONB:	Translated from SCORE and edited on 2013/12/09/ by Craig Sapp
!!muse2ps: T^@{OPR}^u^@{ONM}{. }@{OTL}^C^@{COM}^i2I150v85,85,85,130c200
